svg/300/outlined/tv_options_input_settings-fill.svg

<svg xmlns="http://www.w3.org/2000/svg" width="48" height="48" viewBox="0 -960 960 960"><path d="M157.694-180.001q-23.846 0-40.77-16.923-16.923-16.924-16.923-40.77v-484.612q0-23.846 16.923-40.77 16.924-16.923 40.77-16.923h644.612q23.846 0 40.77 16.923 16.923 16.924 16.923 40.77v484.612q0 23.846-16.923 40.77-16.924 16.923-40.77 16.923H157.694Zm299.614-131.231h45.384l3.692-35.923q21.538-5.23 41-16.423 19.462-11.192 34.462-26.731l32.691 17.308 25.077-35.076-32.692-27.23q5.769-22.539 5.769-44.693 0-22.154-5.769-44.693l32.692-27.23-25.077-35.076-32.691 17.308q-15-15.539-34.462-26.731-19.462-11.193-41-16.423l-3.692-35.923h-45.384l-3.692 35.923q-21.538 5.23-40.5 16.423-18.962 11.192-34.962 26.731l-32.691-17.308-25.077 35.076 32.692 27.23q-5.769 22.539-5.769 44.693 0 22.154 5.769 44.693l-32.692 27.23 25.077 35.076 32.691-17.308q16 15.539 34.962 26.731 18.962 11.193 40.5 16.423l3.692 35.923ZM480-391.231q-37.385 0-63.077-25.692T391.231-480q0-37.385 25.692-63.077T480-568.769q37.385 0 63.077 25.692T568.769-480q0 37.385-25.692 63.077T480-391.231Z"/></svg>

<svg xmlns="http://www.w3.org/2000/svg" width="48" height="48" viewBox="0 -960 960 960"><path d="M157.69-180q-23.84 0-40.77-16.92Q100-213.85 100-237.69v-484.62q0-23.84 16.92-40.77Q133.85-780 157.69-780h644.62q23.84 0 40.77 16.92Q860-746.15 860-722.31v484.62q0 23.84-16.92 40.77Q826.15-180 802.31-180H157.69Zm299.62-131.23h45.38l3.69-35.92q21.54-5.24 41-16.43 19.47-11.19 34.47-26.73L614.54-373l25.07-35.08-32.69-27.23q5.77-22.54 5.77-44.69t-5.77-44.69l32.69-27.23L614.54-587l-32.69 17.31q-15-15.54-34.47-26.73-19.46-11.19-41-16.43l-3.69-35.92h-45.38l-3.69 35.92q-21.54 5.24-40.5 16.43-18.97 11.19-34.97 26.73L345.46-587l-25.07 35.08 32.69 27.23q-5.77 22.54-5.77 44.69t5.77 44.69l-32.69 27.23L345.46-373l32.69-17.31q16 15.54 34.97 26.73 18.96 11.19 40.5 16.43l3.69 35.92Zm22.69-80q-37.38 0-63.08-25.69-25.69-25.7-25.69-63.08 0-37.38 25.69-63.08 25.7-25.69 63.08-25.69 37.38 0 63.08 25.69 25.69 25.7 25.69 63.08 0 37.38-25.69 63.08-25.7 25.69-63.08 25.69Z"/></svg>
